!!!COM: Palestrina, Giovanni Perluigi da
!!!OPR: Regina coeli (1600)
!!!OTL: Gloria
**kern	**kern	**kern	**kern	**kern
*Ibass	*Itenor	*Itenor	*Icalto	*Icant
!Bassus	!Tenor 2	!Tenor 1	!Altus	!Cantus
*clefF4	*clefGv2	*clefGv2	*clefG2	*clefG2
*k[b-]	*k[b-]	*k[b-]	*k[b-]	*k[b-]
*F:ion	*F:ion	*F:ion	*F:ion	*F:ion
*M4/2	*M4/2	*M4/2	*M4/2	*M4/2
=1	=1	=1	=1	=1
0r	1r	2.c	0r	0r
.	.	4c	.	.
.	2.F	2c	.	.
.	.	2c	.	.
.	4F	.	.	.
=2	=2	=2	=2	=2
0r	2F	2d	2.f	0r
.	2F	2c	.	.
.	.	.	4f	.
.	2B-	2.d	2f	.
.	2d	.	2f	.
.	.	4d	.	.
=3	=3	=3	=3	=3
0r	2c	2e	2g	2.cc
.	2F	2.f	2f	.
.	.	.	.	4cc
.	1c	.	2g	2cc
.	.	8e	.	.
.	.	8d	.	.
.	.	2e	2g	2cc
=4	=4	=4	=4	=4
0r	0r	2.f	2.a	2dd
.	.	.	.	2cc
.	.	4e	4g	.
.	.	2f	2a	2dd
.	.	2g	2b	2dd
=5	=5	=5	=5	=5
2r	1r	4c	1cc	1ee
.	.	4d	.	.
1c	.	4e	.	.
.	.	4c	.	.
.	2r	1d	1r	1r
2B-	[2f	.	.	.
=6	=6	=6	=6	=6
2A	2f]	1c	0r	0r
2c	2e	.	.	.
2B-	2d	1r	.	.
4A	2f	.	.	.
4G	.	.	.	.
=7	=7	=7	=7	=7
4A	2.e	0r	0r	1r
4B-	.	.	.	.
1c	.	.	.	.
.	8d	.	.	.
.	8c	.	.	.
.	1d	.	.	2r
2B-	.	.	.	[2ff
=8	=8	=8	=8	=8
2.A	1c	0r	2r	2ff]
.	.	.	2cc	2ee
8B-	.	.	.	.
8c	.	.	.	.
1d	2.f	.	2b-	2dd
.	.	.	2a	2ff
.	4f	.	.	.
=9	=9	=9	=9	=9
2c	2g	2r	1cc	2ee
2A	2a	1f	.	4dd
.	.	.	.	4cc
2B-	1g	.	2b-	2dd
2c	.	2e	4a	2ee
.	.	.	4g	.
=10	=10	=10	=10	=10
1F	1f	2d	1a	4ff
.	.	.	.	4ee
.	.	2f	.	1dd
[1G	1r	2e	[1g	.
.	.	4d	.	[2cc
.	.	4c	.	.
=11	=11	=11	=11	=11
1G]	1r	1d	1g]	2cc]
.	.	.	.	2b
[1C	2r	[1c	1e	[1cc
.	2c	.	.	.
=12	=12	=12	=12	=12
1C]	2g	1c]	2e	1cc]
.	2g	.	2e	.
1r	2.a	1r	2.f	2r
.	.	.	.	2f
.	4g	.	4g	.
=13	=13	=13	=13	=13
0r	2f	0r	2a	2cc
.	2e	.	2g	2cc
.	4d	.	2f	2.dd
.	4c	.	.	.
.	4B-	.	[2d	.
.	4A	.	.	4cc
=14	=14	=14	=14	=14
0r	2G	0r	4d]	2b-
.	.	.	4e	.
.	2F	.	4f	2a
.	.	.	4d	.
.	2c	.	2e	2g
.	2d	.	[2f	2f
=15	=15	=15	=15	=15
1r	1c	2r	2f]	2g
.	.	1c	2e	2g
2r	1F	.	2f	2.a
[2F	.	2c	[2a	.
.	.	.	.	4b-
=16	=16	=16	=16	=16
2F]	0r	1f	2a]	0cc
2F	.	.	2a	.
2c	.	1e	2g	.
2c	.	.	2a	.
=17	=17	=17	=17	=17
2.d	0r	2.f	2b-	1r
.	.	.	2a	.
4c	.	4e	.	.
2B-	.	2d	2g	2r
2A	.	2c	2f	2cc
=18	=18	=18	=18	=18
2G	0r	2d	2g	2b-
2F	.	2f	2a	2a
2G	.	2e	2.g	2b-
2G	.	[2d	.	2b-
.	.	.	4f	.
=19	=19	=19	=19	=19
1A	1r	2d]	1e	1a
.	.	2c#	.	.
2r	1f	[1d	1d	2r
[2B-	.	.	.	[2dd
=20	=20	=20	=20	=20
2B-]	2d	0d]	1b-	2dd]
2G	1g	.	.	2dd
1B-	.	.	2b-	1dd
.	[2f	.	2b-	.
=21	=21	=21	=21	=21
1c	2f]	0r	2a	1cc
.	2e	.	2g	.
2F	2c	.	2a	2cc
2F	[2d	.	[2f	2a
=22	=22	=22	=22	=22
1G	2d]	1r	4f]	1b-
.	.	.	8e	.
.	.	.	8d	.
.	4c	.	2e	.
.	4B-	.	.	.
1F	4c	2r	2f	2a
.	4B-	.	.	.
.	4A	[2f	2cc	2a
.	4G	.	.	.
=23	=23	=23	=23	=23
0r	4F	2f]	2a	2cc
.	4A	.	.	.
.	2G	2d	1b-	1dd
.	1F	2f	.	.
.	.	2f	2a	2cc
=24	=24	=24	=24	=24
0r	0r	1g	2.b-	2ee-
.	.	.	.	2dd
.	.	.	4b-	.
.	.	2c	2a	1cc
.	.	2c	[2g	.
=25	=25	=25	=25	=25
1r	0r	1d	2g]	4b-
.	.	.	.	4a
.	.	.	1f	4a
.	.	.	.	8g
.	.	.	.	8f
2r	.	[1c	.	1g
[2c	.	.	4e	.
.	.	.	4d	.
=26	=26	=26	=26	=26
2c]	2r	1c]	2e	2g
2A	1f	.	2a	2cc
1c	.	1r	2g	2cc
.	2e	.	2g	2cc
=27	=27	=27	=27	=27
2d	1f	0r	2f	2a
2d	.	.	1d	2a
2G	2g	.	.	2b-
2G	2g	.	2b-	[2dd
=28	=28	=28	=28	=28
1A	2c	1r	2a	4dd]
.	.	.	.	4cc
.	2c	.	2f	1cc
1G	1d	2r	2.g	.
.	.	[2g	.	2b
.	.	.	4f	.
=29	=29	=29	=29	=29
1C	2c	2g]	0e	1cc
.	1c	2e	.	.
1r	.	2g	.	2r
.	2A	2a	.	[2cc
=30	=30	=30	=30	=30
1r	2c	2g	2r	2cc]
.	2d	2f	1f	2a
2r	1c	2a	.	1cc
2c	.	2g	2e	.
=31	=31	=31	=31	=31
2c	0r	2r	2f	1dd
2B	.	2d	1g	.
1c	.	2e	.	1g
.	.	2e	[2c	.
=32	=32	=32	=32	=32
2F	0r	4f	2c]	2a
.	.	4e	.	.
2F	.	4d	1d	2a
.	.	4c	.	.
1G	.	2B	.	[1g
.	.	[2c	2e	.
=33	=33	=33	=33	=33
1G	2r	2c]	1d	1g]
.	1g	2B	.	.
1C	.	2c	[1e	1r
.	2e	[2c	.	.
=34	=34	=34	=34	=34
0r	2g	2c]	1e]	1.cc
.	2a	2A	.	.
.	2e	2c	2r	.
.	[2a	2d	[2f	2a
=35	=35	=35	=35	=35
0r	4a]	2A	2f]	2cc
.	4g	.	.	.
.	4f	1B-	2d	2dd
.	4e	.	.	.
.	2d	.	1f	2b-
.	2c	2A	.	[2cc
=36	=36	=36	=36	=36
1r	2d	2.G	2g	2cc]
.	2e	.	2g	2b-
.	.	4G	.	.
2r	1f	1F	2c	2.a
[2F	.	.	2c	.
.	.	.	.	4a
=37	=37	=37	=37	=37
2F]	0r	2r	2.d	1f
2D	.	1B-	.	.
.	.	.	4d	.
1F	.	.	2c	1ff
.	.	2A	[2f	.
=38	=38	=38	=38	=38
1BB-	0B-	1d	2f]	1dd
.	.	.	2d	.
[1E-	.	1G	[1g	2.ee-
.	.	.	.	8dd
.	.	.	.	8cc
=39	=39	=39	=39	=39
1E-]	1G	1.B-	1g]	2.b-
.	.	.	.	4cc
1BB-	1B-	.	2f	1dd
.	.	[2F	[2b-	.
=40	=40	=40	=40	=40
1.F	1c	4F]	2b-]	[0cc
.	.	4G	.	.
.	.	4A	2a	.
.	.	4B-	.	.
.	1F	1c	2a	.
4E	.	.	4g	.
4D	.	.	4f	.
=41	=41	=41	=41	=41
1C	1G	0c	4e	1cc]
.	.	.	4d	.
.	.	.	2e	.
[1F	4F	.	1f	1a
.	4G	.	.	.
.	4A	.	.	.
.	4B-	.	.	.
=42	=42	=42	=42	=42
1F]	1c	1A	2r	2r
.	.	.	2c	2cc
1r	1r	1r	2d	2a
.	.	.	2e	2g
=43	=43	=43	=43	=43
1F	0r	2r	4f	4a
.	.	.	4g	4b-
.	.	2f	2a	4cc
.	.	.	.	4a
2G	.	2d	2g	2b-
2A	.	2c	[2f	[2a
=44	=44	=44	=44	=44
1B-	0r	1d	2f]	2a]
.	.	.	4e	2g
.	.	.	4d	.
1A	.	1e	2.c	[1a
.	.	.	4d	.
=45	=45	=45	=45	=45
2.A	2r	2c	1e	1a]
.	2c	2e	.	.
4G	.	.	.	.
2F	2d	2d	2f	1r
2E	2e	[2c	2g	.
=46	=46	=46	=46	=46
1D	1f	4c]	2a	2r
.	.	4B-	.	.
.	.	4B-	2d	2f
.	.	4A	.	.
1C	1e	1c	1r	2g
.	.	.	.	2a
=47	=47	=47	=47	=47
1BB-	2.d	[0f	2r	4b-
.	.	.	.	4cc
.	.	.	2f	4dd
.	4c	.	.	4ee
1r	2B-	.	2d	1ff
.	2A	.	2c	.
=48	=48	=48	=48	=48
0r	1B-	1f]	4d	2r
.	.	.	4e	.
.	.	.	4f	2b-
.	.	.	4d	.
.	2c	1r	2e	2g
.	2d	.	[2f	2f
=49	=49	=49	=49	=49
1r	1c	1r	2f]	1g
.	.	.	2e	.
2r	2.F	2r	2f	[1a
2F	.	2c	[2f	.
.	4G	.	.	.
=50	=50	=50	=50	=50
2D	0A	2d	2f]	1a]
2C	.	2e	2e	.
1D	.	1f	2.d	2r
.	.	.	.	[2ff
.	.	.	4c	.
=51	=51	=51	=51	=51
1BB-	2r	1d	4d	4ff]
.	.	.	4e	4ee
.	2B-	.	4f	2dd
.	.	.	4d	.
2C	2G	1r	2e	2cc
2D	2F	.	[2f	2b-
=52	=52	=52	=52	=52
1C	1G	2r	2f]	2.cc
.	.	2.c	2e	.
.	.	.	.	4b-
[1F	1A	.	[1f	2a
.	.	4c	.	.
.	.	2c	.	4g
.	.	.	.	4f
=53	=53	=53	=53	=53
1F]	1F	1c	1f]	1a
[1C	[1G	[1c	[1e	[1g
=54	=54	=54	=54	=54
1C]	1G]	1c]	1e]	1g]
!! Qui tollis
*Ibass	*Itenor	*Itenor	*Icalto	*Icant
!Bassus	!Tenor 2	!Tenor 1	!Altus	!Cantus
*clefF4	*clefGv2	*clefGv2	*clefG2	*clefG2
*k[b-]	*k[b-]	*k[b-]	*k[b-]	*k[b-]
*F:ion	*F:ion	*F:ion	*F:ion	*F:ion
*M4/2	*M4/2	*M4/2	*M4/2	*M4/2
=55	=55	=55	=55	=55
0r	0r	0r	1f	1r
.	.	.	1g	1b-
=56	=56	=56	=56	=56
0r	1r	0r	1a	1cc
.	1B-	.	2g	1dd
.	.	.	[2f	.
=57	=57	=57	=57	=57
0r	1c	1r	2f]	2cc
.	.	.	2e	1cc
.	1d	1f	4f	.
.	.	.	4d	.
.	.	.	[2f	2b-
=58	=58	=58	=58	=58
0r	2c	1g	4f]	1cc
.	.	.	4e	.
.	1c	.	2e	.
.	.	2a	1d	2f
.	2B-	[2g	.	2g
=59	=59	=59	=59	=59
0r	0c	2g]	2c	1a
.	.	1f	2cc	.
.	.	.	2cc	2g
.	.	2e	2g	[2cc
=60	=60	=60	=60	=60
1F	1A	1f	4a	4cc]
.	.	.	4g	4b-
.	.	.	4f	1a
.	.	.	4e	.
1G	2r	1B-	4d	.
.	.	.	4c	.
.	2B-	.	[2d	[2g
=61	=61	=61	=61	=61
1A	1c	0r	4d]	2g]
.	.	.	4c	.
.	.	.	1c	2f
2G	2d	.	.	1g
[2G	2d	.	2B	.
=62	=62	=62	=62	=62
2G]	2e	2r	1c	1a
2F	2f	1c	.	.
1G	2d	.	2r	[1g
.	[2G	2B-	2d	.
=63	=63	=63	=63	=63
1C	2G]	1c	2e	1g]
.	1c	.	2.g	.
1D	.	1F	.	1r
.	.	.	4f	.
.	2B-	.	[2f	.
=64	=64	=64	=64	=64
1C	1.c	1G	2f]	1g
.	.	.	2e	.
1r	.	1F	1f	2a
.	2F	.	.	[2cc
=65	=65	=65	=65	=65
0r	1G	1B-	2.d	4cc]
.	.	.	.	4b-
.	.	.	.	1b-
.	.	.	4e	.
.	1F	1c	1f	.
.	.	.	.	2a
=66	=66	=66	=66	=66
0r	2r	1d	1f	2b-
.	1f	.	.	4a
.	.	.	.	4b-
.	.	1c	1g	1cc
.	2e	.	.	.
=67	=67	=67	=67	=67
1F	2f	1.c	1a	1cc
.	2f	.	.	.
1G	2e	.	2g	1r
.	[2d	2B-	[2g	.
=68	=68	=68	=68	=68
1A	4d]	1c	2g]	0r
.	4c	.	.	.
.	1c	.	2f	.
1G	.	2.d	1g	.
.	2B-	.	.	.
.	.	4e	.	.
=69	=69	=69	=69	=69
2.F	2A	1f	2c	1r
.	2.d	.	2f	.
4E	.	.	.	.
2D	.	1r	2f	1b-
.	4c	.	.	.
2E-	[2B-	.	2g	.
=70	=70	=70	=70	=70
1C	4B-]	2r	1e-	1cc
.	8A	.	.	.
.	8G	.	.	.
.	2A	2c	.	.
2BB-	1B-	2.f	1d	1dd
2B-	.	.	.	.
.	.	4g	.	.
=71	=71	=71	=71	=71
2A	2F	1a	0r	2cc
2F	2f	.	.	1cc
2.G	2e	1g	.	.
.	[2d	.	.	2b-
4F	.	.	.	.
=72	=72	=72	=72	=72
2E	4d]	1c	2r	1cc
.	4c	.	.	.
2F	1c	.	1a	.
1D	.	1d	.	2f
.	2B	.	4g	[2ff
.	.	.	4f	.
=73	=73	=73	=73	=73
0C	0c	2r	2a	2ff]
.	.	1G	2g	4ee
.	.	.	.	4dd
.	.	.	1g	2ee
.	.	[2c	.	2ee
=74	=74	=74	=74	=74
1.G	1.d	2c]	2r	0dd
.	.	4B	1g	.
.	.	4A	.	.
.	.	2B	.	.
2G	2d	2B	2g	.
=75	=75	=75	=75	=75
2.A	4c	1c	1e	2r
.	4d	.	.	.
.	4e	.	.	1cc
4G	4c	.	.	.
1F	1f	2r	1a	.
.	.	2f	.	2a
=76	=76	=76	=76	=76
0r	0r	2d	2f	2b-
.	.	2e	2g	2cc
.	.	2f	2a	1dd
.	.	2g	2b-	.
=77	=77	=77	=77	=77
0r	0r	2e	2g	1cc
.	.	2.f	2.a	.
.	.	.	.	1f
.	.	4e	4g	.
.	.	2d	[2f	.
=78	=78	=78	=78	=78
1r	1r	1c	2f]	1g
.	.	.	2e	.
2r	1f	1r	1d	2a
[2B-	.	.	.	[2dd
=79	=79	=79	=79	=79
2B-]	2d	0r	2r	2dd]
2G	2e	.	2g	2b-
2A	2f	.	2c	2a
2B-	[2g	.	2d	2dd
=80	=80	=80	=80	=80
0c	2g]	1r	2e	1cc
.	1f	.	2f	.
.	.	2r	1g	2.cc
.	2e	[2c	.	.
.	.	.	.	4b-
=81	=81	=81	=81	=81
1F	2.f	2c]	1a	2a
.	.	2A	.	1dd
.	4e	.	.	.
[1G	2d	2B	[1g	.
.	2e-	2c	.	2cc
=82	=82	=82	=82	=82
0G]	2d	2d	0g]	2b
.	2c	2e-	.	1cc
.	1d	2d	.	.
.	.	2G	.	2b
=83	=83	=83	=83	=83
1C	1c	2r	1e	2cc
.	.	2g	.	2cc
2r	1r	1f	[1a	1cc
2F	.	.	.	.
=84	=84	=84	=84	=84
1F	2r	1c	2a]	1f
.	2c	.	4g	.
.	.	.	4f	.
1C	1c	1r	4e	1g
.	.	.	4d	.
.	.	.	2e	.
=85	=85	=85	=85	=85
0r	2F	0r	2f	2a
.	2G	.	2e	2b-
.	2A	.	2c	2a
.	2B-	.	2d	4g
.	.	.	.	4f
=86	=86	=86	=86	=86
0r	4A	1c	0e	1a
.	4B-	.	.	.
.	4c	.	.	.
.	4d	.	.	.
.	4e	1c	.	1g
.	4f	.	.	.
.	4g	.	.	.
.	4e	.	.	.
=87	=87	=87	=87	=87
0r	2f	2F	2r	2a
.	4e	2G	2g	2b-
.	4d	.	.	.
.	2c	2A	2e	2a
.	[2d	2B-	2d	2g
=88	=88	=88	=88	=88
0r	4d]	1A	2e	2a
.	4c	.	.	.
.	1c	.	2c	2f
.	.	1G	2.d	1g
.	2B-	.	.	.
.	.	.	4e	.
=89	=89	=89	=89	=89
1r	2c	1F	2f	2.a
.	1f	.	1a	.
.	.	.	.	4b-
1c	.	1r	.	1cc
.	2e	.	2g	.
=90	=90	=90	=90	=90
1F	2.f	0r	1a	2r
.	.	.	.	1cc
.	4e	.	.	.
1G	1d	.	1g	.
.	.	.	.	2b-
=91	=91	=91	=91	=91
2A	2c	0r	2.f	2cc
1B-	4d	.	.	2.f
.	4c	.	4e	.
.	4d	.	2d	.
.	4e	.	.	4g
2A	[2f	.	2c	2a
=92	=92	=92	=92	=92
1G	2f]	0r	1B-	1b-
.	2e	.	.	.
[1F	[1f	.	1c	2a
.	.	.	.	[2cc
=93	=93	=93	=93	=93
0F]	1f]	1r	2r	2cc]
.	.	.	1cc	2f
.	1r	[1f	.	2.a
.	.	.	2f	.
.	.	.	.	4b-
=94	=94	=94	=94	=94
0r	0r	2f]	2a	2cc
.	.	2B-	2b-	2dd
.	.	2c	2a	2cc
.	.	2e-	[2g	4b-
.	.	.	.	4a
=95	=95	=95	=95	=95
0r	0r	1d	4g]	4b-
.	.	.	4f	4a
.	.	.	1f	4a
.	.	.	.	8g
.	.	.	.	8f
.	.	2.c	.	1g
.	.	.	2e	.
.	.	4B-	.	.
=96	=96	=96	=96	=96
2r	1r	2A	2f	0f
1B-	.	2B-	1d	.
.	2r	1F	.	.
2A	2f	.	2c	.
=97	=97	=97	=97	=97
2G	2e	0r	2g	0r
2B-	2d	.	2f	.
2A	2c	.	4f	.
.	.	.	4e	.
2F	[2f	.	4d	.
.	.	.	4c	.
=98	=98	=98	=98	=98
1G	2f]	1r	2B-	2r
.	2e	.	2B-	1b-
1F	1f	2r	2d	.
.	.	2f	2c	2a
=99	=99	=99	=99	=99
0r	2c	2e	0r	2g
.	2G	2d	.	2b-
.	2A	2c	.	2a
.	2d	[2f	.	2f
=100	=100	=100	=100	=100
1r	1c	2f]	1r	1g
.	.	2e	.	.
1B-	1d	2.f	2r	1f
.	.	.	[2f	.
.	.	8e	.	.
.	.	8d	.	.
=101	=101	=101	=101	=101
2A	1r	2c	2f]	0r
2G	.	2g	2e	.
2.B-	2r	1f	2d	.
.	2d	.	[2f	.
8A	.	.	.	.
8G	.	.	.	.
=102	=102	=102	=102	=102
2A	2c	0r	4f]	2r
.	.	.	4e	.
2A	2c	.	4e	1cc
.	.	.	8d	.
.	.	.	8c	.
2G	2.g	.	2d	.
2G	.	.	2d	2b-
.	4f	.	.	.
=103	=103	=103	=103	=103
2A	2e	2r	1c	2a
2F	2a	2f	.	2.cc
2G	1g	2e	2r	.
.	.	.	.	4b-
2G	.	2d	2g	4b-
.	.	.	.	8a
.	.	.	.	8g
=104	=104	=104	=104	=104
1F	2r	2f	1cc	2a
.	1f	2f	.	2a
2r	.	1c	1cc	2.g
2c	2e	.	.	.
.	.	.	.	4a
=105	=105	=105	=105	=105
1B-	2d	0r	2.f	4b-
.	.	.	.	4cc
.	2.f	.	.	2.dd
.	.	.	4g	.
2A	.	.	2a	.
.	4e	.	.	4cc
2c	4e	.	2g	[2cc
.	8d	.	.	.
.	8c	.	.	.
=106	=106	=106	=106	=106
2G	2d	2r	1g	2cc]
2G	2d	2g	.	2b
1A	1c	2f	2r	1cc
.	.	2e	2cc	.
=107	=107	=107	=107	=107
1d	0r	1f	2b-	2r
.	.	.	2a	2ff
2c	.	2.g	2cc	2ee
2G	.	.	[2b-	2dd
.	.	4g	.	.
=108	=108	=108	=108	=108
1d	2r	1f	4b-]	1ff
.	.	.	4a	.
.	2d	.	4a	.
.	.	.	8g	.
.	.	.	8f	.
2c	2e	1r	2g	2.ee
2A	2c	.	[2cc	.
.	.	.	.	8dd
.	.	.	.	8cc
=109	=109	=109	=109	=109
1G	1g	2r	2cc]	2dd
.	.	2.g	2b	2dd
1C	2e	.	1cc	1cc
.	.	4f	.	.
.	2g	4e	.	.
.	.	4d	.	.
=110	=110	=110	=110	=110
0F	1a	4c	2r	2.cc
.	.	4B-	.	.
.	.	4A	2.cc	.
.	.	4G	.	4b-
.	2r	2F	.	4a
.	.	.	4b-	4g
.	[2a	2c	4a	2f
.	.	.	4g	.
=111	=111	=111	=111	=111
1D	4a]	0d	4f	1a
.	4g	.	4e	.
.	4f	.	4d	.
.	4e	.	4c	.
[1G	4d	.	2B-	[1b-
.	4c	.	.	.
.	4B-	.	2G	.
.	4A	.	.	.
=112	=112	=112	=112	=112
0G]	2G	2.B-	2d	0b-]
.	2d	.	2.B-	.
.	.	4c	.	.
.	1B-	1d	.	.
.	.	.	4c	.
.	.	.	4d	.
.	.	.	4e	.
=113	=113	=113	=113	=113
[0F	1c	1r	0f	[0a
.	2r	1A	.	.
.	2F	.	.	.
=114	=114	=114	=114	=114
1F]	2.A	2.c	2r	1a]
.	.	.	2cc	.
.	4B-	4d	.	.
2r	2c	2e	2.a	2r
2D	2d	[2f	.	2f
.	.	.	4g	.
=115	=115	=115	=115	=115
2.F	4c	4f]	4f	2.a
.	8d	4e	4g	.
.	8e	.	.	.
.	1f	2d	1a	.
4G	.	.	.	4b-
2A	.	2c	.	2cc
2B-	4e	2G	2g	[2dd
.	4d	.	.	.
=116	=116	=116	=116	=116
2A	2e	1c	2a	2dd]
2F	2f	.	2a	1cc
1G	1d	1r	[1g	.
.	.	.	.	2b
=117	=117	=117	=117	=117
0C	1e	2r	2g]	[0cc
.	.	2G	2c	.
.	2r	2.c	2.e	.
.	2c	.	.	.
.	.	4d	4f	.
=118	=118	=118	=118	=118
0r	2c	2e	2g	0cc]
.	2F	1f	1a	.
.	1c	.	.	.
.	.	2e	2g	.
=119	=119	=119	=119	=119
0r	2.d	2.f	2f	2r
.	.	.	2.d	2f
.	4e	4e	.	.
.	1f	1d	.	2.a
.	.	.	4e	.
.	.	.	4f	.
.	.	.	4d	4b-
=120	=120	=120	=120	=120
0r	1g	2c	2e	2cc
.	.	1B-	4d	1dd
.	.	.	4c	.
.	2f	.	4d	.
.	.	.	4e	.
.	2F	2A	[2f	2cc
=121	=121	=121	=121	=121
1r	1B-	1G	2f]	2b-
.	.	.	2e	2g
2r	2c	[1F	1f	2a
2F	2A	.	.	[2cc
=122	=122	=122	=122	=122
2.A	2.c	1F]	0r	4cc]
.	.	.	.	4b-
.	.	.	.	2a
4B-	4d	.	.	.
2c	2e	1r	.	2g
2d	[2f	.	.	2f
=123	=123	=123	=123	=123
2B-	2f]	1r	1r	1g
2c	2e	.	.	.
1F	1f	2r	2r	2f
.	.	2F	2A	[2a
=124	=124	=124	=124	=124
0r	2e	2.A	2.c	4a]
.	.	.	.	4b-
.	2.a	.	.	2.cc
.	.	4B-	4d	.
.	.	2c	2e	.
.	4g	.	.	4b-
.	4f	[2d	[2f	4a
.	4e	.	.	4g
=125	=125	=125	=125	=125
0r	2d	2d]	2f]	1a
.	2.e	2c	2e	.
.	.	2B-	2f	1b-
.	4d	.	.	.
.	[2d	2G	2g	.
=126	=126	=126	=126	=126
1r	2d]	1A	1e	2.a
.	2c#	.	.	.
.	.	.	.	4g
1BB-	[1d	1B-	2d	1f
.	.	.	2d	.
=127	=127	=127	=127	=127
2.D	1d]	1.A	2.f	2r
.	.	.	.	1f
4E	.	.	4g	.
1F	2r	.	1a	.
.	2F	2c	.	[2a
=128	=128	=128	=128	=128
2r	2.A	2c	0f	4a]
.	.	.	.	4b-
2F	.	2F	.	1cc
.	4B-	.	.	.
2F	2c	2A	.	.
2BB-	[2d	2B-	.	[2b-
=129	=129	=129	=129	=129
1F	2d]	2F	1f	2b-]
.	2c	2.f	.	2a
1G	2B-	.	1b-	1g
.	.	8e	.	.
.	.	8d	.	.
.	2G	2e	.	.
=130	=130	=130	=130	=130
1F	2A	1f	1a	1cc
.	2.c	.	.	.
2E	.	[1c	2g	2r
.	4B-	.	.	.
2F	2A	.	2f	[2cc
=131	=131	=131	=131	=131
0C	2G	0c]	2e	4cc]
.	.	.	.	4b-
.	2F	.	1f	2a
.	1G	.	.	1g
.	.	.	2e	.
=132	=132	=132	=132	=132
0F	0F	0c	0f	0a
==	==	==	==	==
*-	*-	*-	*-	*-
!!!CDT: 1525/^1526/-1594/2/2
!!!OCY: Italia
!!!AGN: Mass (Paraphrase)
!!!AST: renaissance, vocal
!!!ASW: Antiphon
!!!PWK: Masses, Book 11
!!!RNB: Cadence finals: C
!!!YOR: Le Opere Complete, v. 28, p. 32
!!!YOO: Rome, Italy: Fratelli Scalera
!!!END: 1992//
!!!EED: John Miller
!!!YEC: Copyright 2000, John Miller
!!!YEN: United States of America
!!!YEM: Rights to all derivative electronic formats reserved.
!!!YEM: Refer to licensing agreement for further details.
!!!YEM: This file must be accompanied by the licensing agreement.
!!!YEM: A copy of the licensing agreement may be found at http://www.music-cog.ohio-state.edu/HumdrumDatabases/Palestrina/license.txt
!!!EMD: converted to Humdrum by Bret Aarden
